X: 1
T: Planxty George Brabazon
R: reel
M: 4/4
L: 1/8
K: Gmaj
ge|d2G2 cBAG|d2G2 cBAG|e2A2 ABcd|e2A2 ABcd|
|edcB g2fe|edcB cBAG|BAGE DEGA|B2G2 G2||
||ga|b2gb a2fa|g2eg edcB|e2A2 ABcd|e2A2 A2 ga|
|b2gb a2fa|g2eg edcB|cBAG DEGA|B2G2 G2||


Tune 1609	Setting 24906

